X:33
T:Music For A Found Harmonium
C:Simon Jeffes
R:reel
M:4/4
K:D
|:"D"FDGD FDDD|"D"FDGD FDCD|"D"FDGD FDDD|"A"EDCD &#171;D&#187;FDD2:
|:"Em"EDCD EDCD|"F#m"FDCD FDCD|"G"GDED "A"CDGD|"D"FDDD D2D2:|: \
"D"FDGD FDDD|"D"FDGD FDCD|"D"FDGD FDDD|"A"EDCD &#171;D&#187;FDD2:|:"Em"EDCD EDCD|"F#m"FDCD FDCD|"G"GDED "A"CDGD|"D"FDDD D2D2:| \
K:F
|:"F"cFEF GF2F|"F"cFEF E3F|"F"cFEF GF2F|"F"cFEF E4:|"Bb"BFDF GF2F|"Bb"BFDF GF2F|"Bb"BFEF GE2F|"Bb"BFEF GE2| \
K:D
|"Edim"cGEG CG2G|"Edim"cGEG CG2G|"Edim"cGEG CG2G|"Edim"cGEG CG2G|
